X:1
T:Bach for Solo Flute (XY)
T:Gigue
T:Bach for Solo Flute (VIII)
T:Gigue from Suite No. 5 for Cello (BWV 1011) Transcription for Flute 
T:Johann Sebastian Bach (1685-1750)
T:Transcription by Felix Scharpf
T:twoflutes 2020 / Felix Scharpf / Johann_Sebastian_Bach_signature.svg-2.png
T:twoflutes 2020 / Felix Scharpf / Johann_Sebastian_Bach_signature.svg-2.png
C:Johann Sebastian Bach
Z:twoflutes 2020 / Felix Scharpf / Johann_Sebastian_Bach_signature.svg-2.png
L:1/8
Q:3/8=80
M:3/8
K:Eb
V:1 treble nm="Flöte" snm="Fl."
V:1
!mp! g | (e>f)d | (e>f)d | c>(BA/G/) | (A>c)G | (F>e)c | (d>e)c | (=B>d)G | g>(fe/d/) | (e>g)c | %10
 _a>(gf/e/) | (f>_a)d | b>(ag/f/) | (g>e)c' | (a>f)d' |!mf! e'3- | e'>(d'c'/b/ | c'>)(ba/g/ | a3- | %19
 a>)(gf/e/ | d>)(cB/A/ | G>)_af | (g>b)d | (e>G)B |!mp! E2 ::!mp! e | (g>_a)f | (g>b)=a | %28
 b>(de/f/) | (B>c)d | (e>c')=a | (b>^f)g | (^f>=a)d | d'>(c'b/=a/) | (b>d')g | (f>g)d | (e>g)c' | %37
!mf! (e'2 d') | (c'>^f)g | (d>=a)^f | g>(Bc/d/) | (G>!mp!b)g | (=e>g)b | (_d'>b)c' | a>(gf/=e/) | %45
 (f>a)_e | (d>f)a | (c'>a)b | g>(fe/d/ | e>)gb | =a>(fe/d/ | e>)=ac' | =b>(gf/e/ | f>)=bd' | %54
 (c'>g)e' | (d'>g)f' | (Pe'3 | P=e'3{d'e'} |!mf! f'>)d'_e' | (d'>=b)c' | (P=b>c')d' | g>(fe/d/ | %62
 e) c'2- | c'>(ba/g/ | a>)(gf/=e/ | f3-) | f>(_ed/c/ | =B>)(AG/F/ | E>)G=B | (d>f)_a | (g>d)e | %71
!f! (G>c)=B |1 (c>E)G | C2 :|2[Q:3/8=60]"_rit." (c>E)[Q:3/8=45]G |!mp![Q:3/8=20] !fermata!C2 |] %76

